!!!!SEGMENT: d-b--slg-bohn-ms-mus-111--025_jarzebski-adam--canzoni-e-concerti-25-canzon-secunda.krn
!!!cenid: 16xx:1798
!!!COM: Jarzębski, Adam
!!!COM-rismID: pe30017782
!!!CDT:
!!!CNT:
!!!GTL: Canzoni e Concerti
!!!OTL: 25. Canzon Secunda
!!!PDT: 1627
!!!AGN:
!!!SMS-siglum: D-B
!!!SMS-shelfmark: Slg Bohn Ms.mus. 111
!!!SMS-shelfwork: 025 G
!!!SMS-variant:
!!!SMS-altvar:
!!!NIFC-rismSourceID: 1001062014
!!!NIFC-rismChildID: 1001062014
!!!NIFC-islandoraID:
!!!URL-pdf-islandora:
!!!URL-scan: https://digital.staatsbibliothek-berlin.de/werkansicht/?PPN=PPN1049147219
!!!ONB-nifc: UWAGA: Prima vox: s. 39, Seconda vox: s. 99, Bassus sive Vox Tertia: s. 138, Basso: s. 183, Basso conutnuo: s. 214. Uwaga: proszę wpisywać partie tylko występujące w danym koncercie i nazywać partie wg określeń podawanych przy danym utworze. Kody instr. dla humdrumowców podane zostaną na forum.
!!!AIN: 1 bass 2 soprn 1 vox
!!!key: a
**kern	**fba	**kern	**kern	**kern	**kern
*part5	*part5	*part4	*part3	*part2	*part1
*staff5	*	*staff4	*staff3	*staff2	*staff1
*I"[Organo]	*	*I"Baſso	*I"Tertia Vox.	*I"Secunda Vox	*I"Prima Vox.
*I'bc	*	*I'B	*I'V 3	*I'V 2	*I'V 1
*	*	*ICvox	*ICvox	*ICvox	*ICvox
*	*	*Ibass	*Ivox	*Isoprn	*Isoprn
*IGcont	*	*	*	*	*
*clefC1	*	*clefC4	*clefC3	*clefC1	*clefG2
*	*	*mclefF4	*mclefGv2	*mclefG2	*
*k[]	*	*k[]	*k[]	*k[]	*k[]
*a:	*	*a:	*a:	*a:	*a:
*M2/1	*	*M2/1	*M2/1	*M2/1	*M2/1
*met(C|)	*	*met(C|)	*met(C|)	*met(C|)	*met(C|)
*mmet(C)	*	*mmet(C)	*mmet(C)	*mmet(C)	*mmet(C)
=1-	=1-	=1-	=1-	=1-	=1-
!!LO:TX:t=P:problem: all\right or middle	!	!	!	!
!	!	!LO:TX:a:t=A. 4.:mod=	!LO:TX:a:t=A. 4.:mod=	!	!
4a\	.	0r	1r	0r	4a/
8a\L	.	.	.	.	8a/L
8a\J	.	.	.	.	8a/J
4b\	.	.	.	.	4b/
4b\	.	.	.	.	4b/
*clefC3	*	*	*	*	*2\right
4A/	.	.	4A/	.	2cc\
8A/L	.	.	8A/L	.	.
8A/J	.	.	8A/J	.	.
4B/	.	.	4B/	.	2dd\
!LO:TX:t=P:problem:kreska pseudotaktowa	!	!	!	!	!
4B/	.	.	4B/	.	.
=2-	=2-	=2-	=2-	=2-	=2-
2c/	.	1r	2c/	4e/	8ee\L
.	.	.	.	.	8gg\
.	.	.	.	8e/L	8gg\
.	.	.	.	8e/J	8gg\J
*2\right	*	*	*2\right	*	*
2d\	.	.	2d\	4f/	8.ff\L
.	.	.	.	.	16ee\Jk
.	.	.	.	4f/	8.dd\L
.	.	.	.	.	16cc\Jk
2e\	3:4	2r	1e	4g#X/	4b/
*	*	*	*	*2\right	*
.	.	.	.	2a\	4cc\
*clefC4	*	*	*	*	*
4E/	4	4E/	.	.	2b/
8E/L	#	8E/L	.	4g#Xi/	.
!LO:TX:t=P:problem:kreska pseudotaktowa	!	!	!	!	!
8E/J	.	8E/J	.	.	.
=3-	=3-	=3-	=3-	=3-	=3-
!	!	!LO:TX:t=P:problem: ligatura od góry i dołu	!	!	!
4F/	.	[[4F/	2A/	4a\	2a/
4F/	.	4F/]]	.	8a\L	.
.	.	.	.	8a\J	.
2G/	5:6	(2G/	2r	8.g/L	2r
.	.	.	.	16f/Jk	.
.	.	.	.	8.e/L	.
!	!	!	!	!LO:TX:t=P:problem:kreska pseudotaktowa	!
.	.	.	.	16d/Jk	.
*custos:A	*	*	*	*	*
!LO:LB:g=original	!	!	!	!LO:TX:t=P:problem:mixed beam	!
4A/	.	2A/	4A/	8c/L	8r
.	.	.	.	8cc\	8ee\L
8A/L	.	.	8A/L	8cc\	8ee\
8A/J	.	.	8A/J	8cc\J	8ee\J
4B\	6	2r	4B/	8.b\L	8.dd\L
.	.	.	.	16a\Jk	16cc\Jk
4B\	6	.	4B/	8.g/L	8.b/L
!	!	!	!	!LO:TX:t=P:problem:kreska pseudotaktowa	!LO:TX:t=P:problem:kreska pseudotaktowa
.	.	.	.	16f/Jk	16a/Jk
=4-	=4-	=4-	=4-	=4-	=4-
!	!	!	!	!LO:TX:t=P:problem:mixed beam	!LO:TX:t=P:problem:mixed beam
2c\	.	0r	2c/	8e/L	8g/L
.	.	.	.	8ee\	8gg\
.	.	.	.	8ee\	8gg\
.	.	.	.	8ee\J	8gg\J
*	*	*	*	*	*custos:ff
!	!	!	!	!	!LO:LB:g=original
2d\	5:6	.	2d\	8.dd\L	8.ff\L
.	.	.	.	16cc\Jk	16ee\Jk
.	.	.	.	8.b\L	8.dd\L
!	!	!	!	!	!LO:TX:t=P:problem:kreska pseudotaktowa
.	.	.	.	16a\Jk	16cc\Jk
!LO:TX:t=P:problem:kreska pseudotaktowa	!	!	!	!	!
1e	3:4#r	.	1e	4g#X/	4b/
.	.	.	.	2a\	4cc\
.	.	.	.	.	2b/
.	.	.	.	4g#Xi/	.
=5-	=5-	=5-	=5-	=5-	=5-
4A/	.	8r	2A/	4a\	4a/
.	.	8A/L	.	.	.
8A/L	.	8A/	.	4cc\	8a/L
8A/J	.	8A/J	.	.	8a/J
!	!	!	!LO:TX:t=P:problem:kreska pseudotaktowa	!	!
4G/	.	8.G/L	2r	4dd\	4b/
.	.	16F/Jk	.	.	.
4E/	.	8.E/L	.	2gny/	4b/
!	!	!LO:TX:t=P:problem:kreska pseudotaktowa	!	!	!
.	.	16D/Jk	.	.	.
*	*	*	*custos:e	*	*
!	!	!LO:TX:t=P:problem:mixed beam	!LO:LB:g=original	!	!
4C/	.	8C/L	8r	.	2cc\
.	.	8c\	8e\L	.	.
8c\L	.	8c\	8e\	4a\	.
8c\J	.	8c\J	8e\J	.	.
*	*	*custos:B	*	*	*
!	!	!LO:LB:g=original	!	!LO:TX:t=P:problem:kreska pseudotaktowa	!
4B\	.	8.B\L	8.d\L	2b\	2dd\
.	.	16A\Jk	16c\Jk	.	.
!LO:TX:t=P:problem:kreska pseudotaktowa	!	!	!	!	!
4G/	.	8.G/L	8.B/L	.	.
!	!	!LO:TX:t=P:problem:kreska pseudotaktowa	!LO:TX:t=P:problem:kreska pseudotaktowa	!	!
.	.	16F/Jk	16A/Jk	.	.
*	*	*	*	*	*clefG1
=6-	=6-	=6-	=6-	=6-	=6-
!	!	!LO:TX:t=P:problem:mixed beam	!LO:TX:t=P:problem:mixed beam	!	!
4E/	.	8E/L	8G/L	4r	4ee\
.	.	8e\	8g\	.	.
8e\L	.	8e\	8g\	4ee\	4gg\
8e\J	.	8e\J	8g\J	.	.
4d\	.	8.d\L	8.f\L	4a\	4aa\
.	.	16c\Jk	16e\Jk	.	.
4B\	.	8.B\L	8.d\L	4dd\	2bb\
!	!	!	!LO:TX:t=P:problem:kreska pseudotaktowa	!	!
.	.	16A\Jk	16c\Jk	.	.
!	!	!LO:TX:t=P:problem:kreska pseudotaktowa	!	!	!
2e\	3:4:4	1E	4B/	4g#X/	.
.	.	.	4A/	2a\	4ccc\
!LO:TX:t=P:problem:kreska pseudotaktowa	!	!	!	!	!
2E/	#	.	1e\	.	2bb\
!	!	!	!	!LO:TX:t=P:problem:kreska pseudotaktowa	!
.	.	.	.	4g#X/	.
=7-	=7-	=7-	=7-	=7-	=7-
4AA/	.	4AA/	.	8a\L	8aa\
*	*	*	*	*	*clefG2
.	.	.	.	8cc\	8ee\L
8AA/L	.	8AA/L	.	8cc\	8ee\
8AA/J	.	8AA/J	.	8cc\J	8ee\J
4BB/	.	4BB/	2B/	8.b\L	8.dd\L
.	.	.	.	16a\Jk	16cc\Jk
4BB/	6	4BB/	.	8.gny/L	8.b/L
!	!	!	!	!LO:TX:t=P:problem:kreska pseudotaktowa	!
.	.	.	.	16f/Jk	16a/Jk
!	!	!	!	!LO:TX:t=P:problem:mixed beam	!LO:TX:t=P:problem:mixed beam
2C/	.	2C/	2e\	8e/L	8g/L
.	.	.	.	8ee\	8gg\
.	.	.	.	8ee\	8gg\
.	.	.	.	8ee\J	8gg\J
*	*	*	*	*custos:dd	*custos:ff
!LO:TX:t=P:problem:kreska pseudotaktowa	!	!	!	!LO:LB:g=original	!
!	!	!LO:TX:t=P:problem:kreska pseudotaktowa	!	!	!LO:LB:g=original
2D/	6:5	2D/	2r	8.dd\L	8.ff\L
.	.	.	.	16cc\Jk	16ee\Jk
.	.	.	.	8.b\L	8.dd\L
.	.	.	.	16a\Jk	16cc\Jk
*custos:E	*	*	*	*	*
!LO:LB:g=original	!	!	!	!	!
=8-	=8-	=8-	=8-	=8-	=8-
!	!	!LO:TX:t=P:problem:mixed beam	!	!	!
4E/	.	8E/L	1r	2g/	8b\L
.	.	8c\	.	.	8ee\
8c\L	.	8c\	.	.	8ee\
8c\J	.	8c\J	.	.	8ee\J
4B\	.	8.B\L	.	2r	8.dd\L
.	.	16A\Jk	.	.	16cc\Jk
4G/	.	8.G/L	.	.	8.b/L
!	!	!	!	!	!LO:TX:t=P:problem:kreska pseudotaktowa
.	.	16F/Jk	.	.	16a/Jk
*	*	*custos:E	*	*	*
!	!	!LO:LB:g=original	!	!	!LO:TX:t=P:problem:mixed beam
4E/	.	4E/	4e\	8r	8g/L
.	.	.	.	8ee\L	8gg\
4C/	.	4C/	8e\L	8ee\	8gg\
.	.	.	8e\J	8ee\J	8gg\J
!LO:TX:t=P:problem:kreska pseudotaktowa	!	!	!	!	!
2D/	5:6	2D/	4f\	8.dd\L	8.ff\L
.	.	.	.	16cc\Jk	16ee\Jk
.	.	.	4f\	8.b\L	8.dd\L
.	.	.	.	16a\Jk	16cc\Jk
*	*	*	*custos:g#	*	*
!	!	!	!LO:LB:g=original	!	!
=9-	=9-	=9-	=9-	=9-	=9-
1E	3:4#r	1E	4g#X\	2.ee\	4b/
.	.	.	2a\	.	4cc\
.	.	.	.	.	2b/
.	.	.	4g#Xi\	4dd\	.
!LO:TX:t=P:problem:kreska pseudotaktowa	!	!LO:TX:t=P:problem:kreska pseudotaktowa	!	!	!LO:TX:t=P:problem:kreska pseudotaktowa
1A	#	1A	1a	1cc#X	1a
=10-	=10-	=10-	=10-	=10-	=10-
*M3/2	*	*M3/2	*M3/2	*M3/2	*M3/2
*met(3)	*	*met(3)	*met(3)	*met(3)	*met(3)
2A/	#	2A/	2c#X/	2e/	2a/
2A/	.	2A/	2c#/	2e/	2a/
2A/	.	2A/	2c#/	2e/	2a/
=11-	=11-	=11-	=11-	=11-	=11-
1G	.	1G	1d	1g	1b
!LO:TX:t=P:problem:kreska pseudotaktowa	!	!LO:TX:t=P:problem:kreska pseudotaktowa	!	!	!
2G/	.	2G/	2d\	2g/	2b/
=12-	=12-	=12-	=12-	=12-	=12-
1F	.	1F	1f	1a	1cc
2D/	.	2D/	2f\	2a\	2dd\
=13-	=13-	=13-	=13-	=13-	=13-
1E	#	1E	1e	1g#X	1b
!LO:TX:t=P:problem:kreska pseudotaktowa	!	!LO:TX:t=P:problem:kreska pseudotaktowa	!	!	!
2E/	.	2E/	2e\	2g#/	2b/
*	*	*	*	*	*custos:a
!	!	!	!	!	!LO:LB:g=original
=14-	=14-	=14-	=14-	=14-	=14-
1AA	#	1AA	4c#X/	4a\	2.a/
.	.	.	4d\	4b\	.
.	.	.	2e\	4ccny\	.
.	.	.	.	4dd\	4b/
2A/	.	2A/	2e\	4a\	4cc\
!	!	!	!	!	!LO:TX:t=P:problem:kreska pseudotaktowa
.	.	.	.	4b\	4dd\
*	*	*	*	*custos:g	*
!	!	!	!	!LO:LB:g=original	!
=15-	=15-	=15-	=15-	=15-	=15-
1E	#	1E	1e	4g#X/	4ee\
.	.	.	.	4a\	4ff#Xi\
.	.	.	.	4b\	4gg#Xi\yy
.	.	.	.	4cc\	4aa\
!	!	!LO:TX:t=P:problem:kreska pseudotaktowa	!	!	!
!LO:TX:t=P:problem:kreska pseudotaktowa	!	!	!	!LO:TX:t=P:problem:kreska pseudotaktowa	!
2E/	.	2E/	2r	2g#X/	2bb\
*	*	*custos:A	*	*	*
!	!	!LO:LB:g=original	!	!	!
=16-	=16-	=16-	=16-	=16-	=16-
2A/	#	2A/	4c#X/	4a\	1aa
.	.	.	4d\	4b\	.
2A/	.	2A/	4e\	4cc#Xi\	.
.	.	.	4f\	4dd\	.
!	!	!	!	!	!LO:TX:t=P:problem:kreska pseudotaktowa
2A/	.	2A/	2c#X/	2ee\	2r
*custos:D	*	*	*custos:f#	*	*
!LO:LB:g=original	!	!	!LO:LB:g=original	!	!
=17-	=17-	=17-	=17-	=17-	=17-
1D	#	1.D	4f#X\	1dd	4dd\
.	.	.	4gny\	.	4ee\
.	.	.	2a\	.	4ff#Xi\
.	.	.	.	.	4ggny\
!LO:TX:t=P:problem:kreska pseudotaktowa	!	!	!	!LO:TX:t=P:problem:kreska pseudotaktowa	!
2D/	.	.	2f#X\	2r	2aa\
=18-	=18-	=18-	=18-	=18-	=18-
1G	.	1G	2g\	4gny/	1gg
.	.	.	.	4a\	.
.	.	.	4G/	4b\	.
.	.	.	4A/	4ccny\	.
2G/	.	2G/	2B/	2dd\	2r
=19-	=19-	=19-	=19-	=19-	=19-
1C	.	1.C	2.cny/	1cc	4cc\
.	.	.	.	.	4dd\
.	.	.	.	.	4ee\
.	.	.	4d\	.	4ffny\
!LO:TX:t=P:problem:kreska pseudotaktowa	!	!	!	!	!
2C/	.	.	2e\	2cc\	2gg\
=20-	=20-	=20-	=20-	=20-	=20-
1F	.	1F	2.fny\	1a	1ff
.	.	.	4e\	.	.
2B-X\	.	2B-X\	4f\	2r	2dd\
.	.	.	4g\	.	.
=21-	=21-	=21-	=21-	=21-	=21-
2.A/	.	2.A/	1c	2.cc\	1ee
4A/	.	4A/	.	4cc\	.
!LO:TX:t=P:problem:kreska pseudotaktowa	!	!	!	!	!
2G#X/	6	4G#X/	2e\	4b\	2r
!	!	!LO:TX:t=P:problem:kreska pseudotaktowa	!	!	!
.	.	4G#/	.	4b\	.
=22-	=22-	=22-	=22-	=22-	=22-
2A/	.	2A/	1e	2cc\	4ee\
.	.	.	.	.	4ff#Xi\
2E/	#	2E/	.	2b\	4gg#Xi\
.	.	.	.	.	4aa\
2E/	.	2E/	2e\	2g#X/	2bb\
=23-	=23-	=23-	=23-	=23-	=23-
4AA/	.	4AA/	1c	2.a\	1aa
4BB/	.	4BB/	.	.	.
4C/	6	4C/	.	.	.
4D/	.	4D/	.	4a\	.
!LO:TX:t=P:problem:kreska pseudotaktowa	!	!	!	!	!
2E/	#	2E/	2B/	4g#X/	2r
.	.	.	.	4g#/	.
*	*	*	*	*custos:a	*
!	!	!	!	!LO:LB:g=original	!
=24-	=24-	=24-	=24-	=24-	=24-
2A/	.	2AA/	4.c/	2a\	4.a/
.	.	.	8c/	.	8a/
*	*	*	*	*	*custos:b
!	!	!	!	!	!LO:LB:g=original
2Gny/	.	2r	4.d\	2r	4.b/
.	.	.	8d\	.	8b/
!LO:TX:t=P:problem:kreska pseudotaktowa	!	!	!	!LO:TX:t=P:problem:kreska pseudotaktowa	!
2E/	6	2r	4.e\	2r	4.cc#Xi\
!	!	!	!	!	!LO:TX:t=P:problem:kreska pseudotaktowa
.	.	.	8e\	.	8cc#\
*	*	*custos:D	*custos:f	*	*
!	!	!LO:LB:g=original	!LO:LB:g=original	!	!
=25-	=25-	=25-	=25-	=25-	=25-
4D/	.	4D/	1f	4f/	2dd\
4E/	.	4E/	.	4gny/	.
4F/	6	4F/	.	2a\	2r
4G/	.	4Gny/	.	.	.
!LO:TX:t=P:problem:kreska pseudotaktowa	!	!	!	!	!
!	!	!	!	!LO:TX:t=P:problem:kreska pseudotaktowa	!
2A/	#	2A/	2c#X/	2e/	2r
*custos:d	*	*	*	*	*
!LO:LB:g=original	!	!	!	!	!
=26-	=26-	=26-	=26-	=26-	=26-
2d\	.	2D/	2d\	4.f/	4.dd\
.	.	.	.	8f/	8dd\
2c\	.	2r	2r	4.g/	4.ee\
.	.	.	.	8g/	8ee\
!	!	!LO:TX:t=P:problem:kreska pseudotaktowa	!LO:TX:t=P:problem:kreska pseudotaktowa	!	!
2A/	6	2r	2r	4.a\	4.ff#X\
!	!	!	!	!LO:TX:t=P:problem:kreska pseudotaktowa	!LO:TX:t=P:problem:kreska pseudotaktowa
.	.	.	.	8a\	8ff#\
=27-	=27-	=27-	=27-	=27-	=27-
2G/	.	4.G/	4.g\	4.b\	2ggny\
.	.	8G/	8g\	8b\	.
2A/	6	4.A/	4.f\	4.cc\	2r
.	.	8A/	8e\	8cc\	.
!LO:TX:t=P:problem:kreska pseudotaktowa	!	!	!	!	!
2Bny\	.	4.Bny\	2d\	4.dd\	2r
!	!	!LO:TX:t=P:problem:kreska pseudotaktowa	!	!LO:TX:t=P:problem:kreska pseudotaktowa	!
.	.	8B\	.	8dd\	.
=28-	=28-	=28-	=28-	=28-	=28-
2c\	.	2c\	4.e\	2cc\	4.ee\
.	.	.	8e\	.	8ee\
2d\	#	2r	4.d\	2r	4.ff#X\
.	.	.	8d\	.	8ff#\
2e\	#	2r	4.e\	2r	4.gg#X\
!	!	!	!LO:TX:t=P:problem:kreska pseudotaktowa	!	!
.	.	.	8e\	.	8gg#\
=29-	=29-	=29-	=29-	=29-	=29-
2A/	.	4.A/	2A/	4.cc\	2aa\
.	.	8A/	.	8cc\	.
2B\	.	4.B\	2r	4.dd\	2r
.	.	8B\	.	8dd\	.
!LO:TX:t=P:problem:kreska pseudotaktowa	!	!	!	!	!
2c\	.	4.c\	2r	4.ee\	2r
!	!	!LO:TX:t=P:problem:kreska pseudotaktowa	!	!	!
.	.	8c\	.	8ee\	.
*	*	*	*	*custos:dd	*
!	!	!	!	!LO:LB:g=original	!
=30-	=30-	=30-	=30-	=30-	=30-
2d\	.	2d\	4.d\	2dd\	4.dd\
.	.	.	8d\	.	8dd\
2c#X\	6	2r	4.c#X/	2r	4.ee\
.	.	.	8c#/	.	8ee\
2d\	#	2r	4.d\	2r	4.ff#X\
!	!	!	!	!	!LO:TX:t=P:problem:kreska pseudotaktowa
.	.	.	8d\	.	8ff#\
*	*	*custos:G	*custos:d	*	*custos:gg
!	!	!LO:LB:g=original	!LO:LB:g=original	!	!LO:LB:g=original
=31-	=31-	=31-	=31-	=31-	=31-
2G/	.	4.G/	2d\	4.b\	2ggny\
.	.	8G/	.	8b\	.
2A/	.	4.A/	2r	4.cc\	2r
.	.	8A/	.	8cc\	.
2B\	#	4.B\	2r	4.dd#X\	2r
!	!	!LO:TX:t=P:problem:kreska pseudotaktowa	!	!	!
.	.	8B\	.	8dd#\	.
=32-	=32-	=32-	=32-	=32-	=32-
2.e\	.	2.e\	1.r	2.ee\	2.gg\
4e\	.	4e\	.	4ee\	4gg\
4B\	5	4B\	.	4ddny\	4ff#X\
!	!	!LO:TX:t=P:problem:kreska pseudotaktowa	!	!	!LO:TX:t=P:problem:kreska pseudotaktowa
4B\	#	4B\	.	4dd\	4ff#\
=33-	=33-	=33-	=33-	=33-	=33-
2.cny\	.	2.c\	2.g\	2.cc\	2.ee\
4c\	.	4c\	4g\	4cc\	4ee\
4G/	.	4G/	4g\	4b\	4dd\
!LO:TX:t=P:problem:kreska pseudotaktowa	!	!LO:TX:t=P:problem:kreska pseudotaktowa	!	!	!
4G/	.	4G/	4g\	4b\	4dd\
=34-	=34-	=34-	=34-	=34-	=34-
2.A/	.	2.A/	2.e\	2.a\	2.ccny\
4A/	.	4A/	4e\	4a\	4cc\
4E/	.	4E/	4e\	4g/	4b/
!	!	!LO:TX:t=P:problem:kreska pseudotaktowa	!	!	!
4E/	.	4E/	4e\	4g/	4b/
*custos:F	*	*	*	*	*
!LO:LB:g=original	!	!	!	!	!
=35-	=35-	=35-	=35-	=35-	=35-
2.F/	.	2.F/	2.cny/	2.f/	2.a/
4F/	.	4F/	4c/	4f/	4a/
4C/	.	4C/	4c/	4e/	4g/
!LO:TX:t=P:problem:kreska pseudotaktowa	!	!	!	!	!
4C/	.	4C/	4c/	4e/	4g/
*	*	*custos:D	*	*custos:d	*
!	!	!LO:LB:g=original	!	!LO:LB:g=original	!
=36-	=36-	=36-	=36-	=36-	=36-
1D	.	4.D/	2.A/	2.d/	2.f/
.	.	8E/	.	.	.
.	.	4.F/	.	.	.
.	.	.	4a\	4d/	4f/
.	.	8G/	.	.	.
2A/	#	2A/	4.a\	4c#X/	4e/
.	.	.	.	4c#/	4e/
.	.	.	8g\	.	.
=37-	=37-	=37-	=37-	=37-	=37-
1D	.	1D	2.f\	1d	2.d/
.	.	.	4f\	.	4d/
!	!	!	!	!LO:TX:t=P:problem:kreska pseudotaktowa	!LO:TX:b:t=P:problem:# below
2A/	#	2r	4e\	2r	4c#X/
!	!	!	!	!	!LO:TX:b:t=P:problem:# below
.	.	.	4e\	.	4c#X/
=38-	=38-	=38-	=38-	=38-	=38-
2.d\	.	2.d\	1d	1.r	2.f/
4d\	.	4d\	.	.	4f/
4c\	.	4c\	2r	.	4e/
!LO:TX:t=P:problem:kreska pseudotaktowa	!	!LO:TX:t=P:problem:kreska pseudotaktowa	!	!	!
4c\	.	4c\	.	.	4e/
=39-	=39-	=39-	=39-	=39-	=39-
!	!	!	!LO:TX:t=P:problem: VHV nie wyświetla pauzy	!	!
2.B\	.	2.B\	1.r	2.dd\	1d
4B\	.	4B\	.	4dd\	.
4A/	.	4A/	.	4cc\	2r
!LO:TX:t=P:problem:kreska pseudotaktowa	!	!LO:TX:t=P:problem:kreska pseudotaktowa	!	!	!
4A/	.	4A/	.	4cc\	.
*	*	*	*	*	*custos:dd
!	!	!	!	!	!LO:LB:g=original
=40-	=40-	=40-	=40-	=40-	=40-
1G	.	1G	1.r	2.b\	2.dd\
.	.	.	.	4b\	4dd\
2A/	.	2r	.	4a\	4cc\
.	.	.	.	4a\	4cc\
=41-	=41-	=41-	=41-	=41-	=41-
2.G/	.	2.G/	1.r	1g	2.b/
4G/	.	4G/	.	.	4b/
4F/	.	4F/	.	2r	4a/
!	!	!LO:TX:t=P:problem:kreska pseudotaktowa	!	!	!
4F/	.	4F/	.	.	4a/
=42-	=42-	=42-	=42-	=42-	=42-
!	!	!	!	!LO:TX:t=P:problem: VHV nie wyświetla pauzy	!
2.E/	.	2.E/	2.g\	1.r	1g
4E/	.	4E/	4g\	.	.
!	!	!	!	!	!LO:TX:t=P:problem:kreska pseudotaktowa
4D/	.	4D/	4f\	.	2r
!LO:TX:t=P:problem:kreska pseudotaktowa	!	!	!	!	!
4D/	.	4D/	4f\	.	.
*	*	*custos:C	*custos:e	*	*
!	!	!LO:LB:g=original	!LO:LB:g=original	!	!
=43-	=43-	=43-	=43-	=43-	=43-
1C	.	1C	2.e\	2.ee\	2.gg\
.	.	.	4e\	4ee\	4gg\
!LO:TX:t=P:problem:kreska pseudotaktowa	!	!	!	!	!
2B\	5#r	2r	4B/	4dd\	4ff#X\
.	.	.	4B/	4dd\	4ff#\
=44-	=44-	=44-	=44-	=44-	=44-
2.c\	.	2.c\	2.e\	2.cc\	2.ee\
4c\	.	4c\	4g\	4cc\	4ee\
4G/	.	4G/	4g\	4b\	4dd\
!LO:TX:t=P:problem:kreska pseudotaktowa	!	!	!	!	!
!	!	!LO:TX:t=P:problem:kreska pseudotaktowa	!	!	!
4G/	.	4G/	4g\	4b\	4dd\
*custos:A	*	*	*	*custos:a	*
!LO:LB:g=original	!	!	!	!LO:LB:g=original	!
=45-	=45-	=45-	=45-	=45-	=45-
2.A/	.	2.A/	2.e\	2.a\	2.cc\
4A/	.	4A/	4e\	4a\	4cc\
4E/	.	4E/	4e\	4g#X/	4b/
4E/	.	4E/	4e\	4g#/	4b/
=46-	=46-	=46-	=46-	=46-	=46-
*M2/1	*	*M2/1	*M2/1	*M2/1	*M2/1
*met(C|)	*	*met(C|)	*met(C|)	*met(C|)	*met(C|)
*mmet(C)	*	*mmet(C)mmet(C)	*mmet(C)	*mmet(C)	*mmet(C)
4.F/	.	4.F/	4c/	2a\	4.a/
.	.	.	4f\	.	.
8G/	.	8G/	.	.	8b/
!LO:TX:t=P:problem:kreska pseudotaktowa	!	!	!	!	!
2A/	.	2A/	2e\	1a	2cc\
*	*	*	*	*	*custos:b
!	!	!	!	!	!LO:LB:g=original
1E	.	1E	1e	.	2b/
!	!	!	!	!	!LO:TX:t=P:problem:kreska pseudotaktowa
.	.	.	.	2g#X/	2b/
=47-	=47-	=47-	=47-	=47-	=47-
2A/	.	2AA/	2c#X/	2a\	4a/
.	.	.	.	.	8a/L
.	.	.	.	.	8a/J
2G#X/	.	2r	2r	2r	4b/
.	.	.	.	.	4b/
4A/	.	1r	4A/	1r	2cc\
8A/L	.	.	8A/L	.	.
8A/J	.	.	8A/J	.	.
4B\	.	.	4B/	.	2dd\
4B\	.	.	4B/	.	.
=48-	=48-	=48-	=48-	=48-	=48-
2c\	.	1r	2cny/	4e/	8ee\L
.	.	.	.	.	8gg\
.	.	.	.	8e/L	8gg\
.	.	.	.	8e/J	8gg\J
!LO:TX:t=P:problem:kreska pseudotaktowa	!	!	!	!	!
2d\	5:6	.	2d\	4f/	8.ffny\L
.	.	.	.	.	16ee\Jk
.	.	.	.	4f/	8.dd\L
.	.	.	.	.	16cc\Jk
*	*	*	*custos:e	*	*
!LO:N:vis=1	!	!	!LO:LB:g=original	!	!
2e\	3:4#r	2r	1e	4g#X/	4b/
.	.	.	.	2a\	4cc\
4E/	.	4E/	.	.	2b/
8E/L	.	8E/L	.	4g#X/	.
8E/J	.	8E/J	.	.	.
=49-	=49-	=49-	=49-	=49-	=49-
4F/	.	4F/	2A/	4a\	2a/
4F/	.	4F/	.	8a\L	.
.	.	.	.	8a\J	.
*	*	*	*	*custos:g	*
!LO:TX:t=P:problem:kreska pseudotaktowa	!	!	!	!LO:LB:g=original	!LO:TX:t=P:problem:kreska pseudotaktowa
2Gny/	.	2G/	2r	8.gny/L	2r
.	.	.	.	16f/Jk	.
.	.	.	.	8.e/L	.
!	!	!	!	!LO:TX:t=P:problem:kreska pseudotaktowa	!
.	.	.	.	16d/Jk	.
*	*	*custos:A	*	*	*
!	!	!LO:LB:g=original	!	!LO:TX:t=P:problem:mixed beam	!
4A/	.	2A/	4A/	8cny/L	8r
.	.	.	.	8cc\	8ee\L
8A/L	.	.	8A/L	8cc\	8ee\
8A/J	.	.	8A/J	8cc\J	8ee\J
4B\	.	2r	4B/	8.b\L	8.dd\L
.	.	.	.	16a\Jk	16cc\Jk
4B\	.	.	4B/	8.g/L	8.b/L
!	!	!	!	!LO:TX:t=P:problem:kreska pseudotaktowa	!
.	.	.	.	16f/Jk	16a/Jk
=50-	=50-	=50-	=50-	=50-	=50-
!	!	!	!	!LO:TX:t=P:problem:mixed beam	!LO:TX:t=P:problem:mixed beam
2c\	.	0r	2c/	8e/L	8g/L
.	.	.	.	8ee\	8gg\
.	.	.	.	8ee\	8gg\
.	.	.	.	8ee\J	8gg\J
!LO:TX:t=P:problem:kreska pseudotaktowa	!	!	!	!	!
2d\	.	.	2d\	8.dd\L	8.ff\L
.	.	.	.	16cc\Jk	16ee\Jk
.	.	.	.	8.b\L	8.dd\L
!	!	!	!	!	!LO:TX:t=P:problem:kreska pseudotaktowa
.	.	.	.	16a\Jk	16cc\Jk
1e	.	.	1e	4g#X/	4b/
.	.	.	.	2a\	4cc\
.	.	.	.	.	2b/
.	.	.	.	4g#X/	.
=51-	=51-	=51-	=51-	=51-	=51-
4A/	.	8r	2A/	4a\	4a/
.	.	8A/L	.	.	.
8A/L	.	8A/	.	4cc\	8a/L
8A/J	.	8A/J	.	.	8a/J
*	*	*	*	*custos:dd	*
!	!	!	!	!LO:LB:g=original	!
4G/	.	8.G/L	2r	4dd\	4b/
.	.	16F/Jk	.	.	.
!	!	!	!	!	!LO:TX:t=P:problem:kreska pseudotaktowa
4E/	.	8.E/L	.	2gny/	4b/
!	!	!LO:TX:t=P:problem:kreska pseudotaktowa	!	!	!
.	.	16D/Jk	.	.	.
!	!	!LO:TX:t=P:problem:mixed beam	!	!	!
4C/	.	8C/L	8r	.	2cc\
.	.	8c\	8e\L	.	.
8c\L	.	8c\	8e\	4a\	.
8c\J	.	8c\J	8e\J	.	.
4B\	.	8.B\L	8.d\L	2b\	2dd\
.	.	16A\Jk	16c\Jk	.	.
!LO:TX:t=P:problem:kreska pseudotaktowa	!	!	!	!	!
4G/	.	8.G/L	8.B/L	.	.
!	!	!LO:TX:t=P:problem:kreska pseudotaktowa	!	!	!
.	.	16F/Jk	16A/Jk	.	.
*	*	*	*	*	*clefG1
=52-	=52-	=52-	=52-	=52-	=52-
!	!	!LO:TX:t=P:problem:mixed beam	!LO:TX:t=P:problem:mixed beam	!	!
4E/	.	8E/L	8G/L	4r	4ee\
.	.	8e\	8g\	.	.
8e\L	.	8e\	8g\	4ee\	4gg\
8e\J	.	8e\J	8g\J	.	.
4d\	.	8.d\L	8.f\L	4a\	4aa\
.	.	16c\Jk	16e\Jk	.	.
!LO:TX:t=P:problem:kreska pseudotaktowa	!	!	!	!	!
4B\	.	8.B\L	8.d\L	4dd\	2bb\
!	!	!	!LO:TX:t=P:problem:kreska pseudotaktowa	!	!
.	.	16A\Jk	16c\Jk	.	.
*	*	*	*custos:B	*	*
!	!	!	!LO:LB:g=original	!	!
2e\	3:4	1E	4B/	4g#X/	.
.	.	.	4A/	2a\	4ccc\
2E/	4#r	.	1e\	.	2bb\
!	!	!	!	!LO:TX:t=P:problem:kreska pseudotaktowa	!
.	.	.	.	4g#X/	.
*	*	*	*	*	*clefG2
*	*	*custos:AA	*	*	*custos:aa
!	!	!LO:LB:g=original	!	!	!LO:LB:g=original
=53-	=53-	=53-	=53-	=53-	=53-
4AA/	.	4AA/	.	8a\L	8aa\L
.	.	.	.	8cc\	8ee\
8AA/L	.	8AA/L	.	8cc\	8ee\
8AA/J	.	8AA/J	.	8cc\J	8ee\J
4BB/	.	4BB/	2B/	8.b\L	8.dd\L
.	.	.	.	16a\Jk	16cc\Jk
!LO:TX:t=P:problem:kreska pseudotaktowa	!	!	!	!	!
4BB/	6	4BB/	.	8.gny/L	8.b/L
!	!	!	!	!LO:TX:t=P:problem:kreska pseudotaktowa	!LO:TX:t=P:problem:kreska pseudotaktowa
.	.	.	.	16f/Jk	16a/Jk
!	!	!	!	!LO:TX:t=P:problem:mixed beam	!LO:TX:t=P:problem:mixed beam
2C/	.	2C/	1r	8e/L	8g/L
.	.	.	.	8ee\	8gg\
.	.	.	.	8ee\	8gg\
.	.	.	.	8ee\J	8gg\J
!	!	!LO:TX:t=P:problem:kreska pseudotaktowa	!	!	!
2D/	5:6	2D/	.	8.dd\L	8.ff\L
.	.	.	.	16cc\Jk	16ee\Jk
.	.	.	.	8.b\L	8.dd\L
!	!	!	!	!	!LO:TX:t=P:problem:kreska pseudotaktowa
.	.	.	.	16a\Jk	16cc\Jk
*custos:E	*	*	*	*custos:g	*
!LO:LB:g=original	!	!	!	!LO:LB:g=original	!
=54-	=54-	=54-	=54-	=54-	=54-
!	!	!LO:TX:t=P:problem:mixed beam	!	!	!
4E/	.	8E/L	1r	2g/	8b\L
.	.	8c\	.	.	8ee\
8c\L	.	8c\	.	.	8ee\
8c\J	.	8c\J	.	.	8ee\J
4B\	.	8.B\L	.	2r	8.dd\L
.	.	16A\Jk	.	.	16cc\Jk
!LO:TX:t=P:problem:kreska pseudotaktowa	!	!	!	!	!
4G/	.	8.G/L	.	.	8.b/L
!	!	!	!	!	!LO:TX:t=P:problem:kreska pseudotaktowa
.	.	16F/Jk	.	.	16a/Jk
!	!	!	!	!	!LO:TX:t=P:problem: mixed beam
4E/	.	4E/	4e\	8r	8g/L
.	.	.	.	8ee\L	8gg\
4C/	.	4C/	8e\L	8ee\	8gg\
.	.	.	8e\J	8ee\J	8gg\J
*	*	*	*	*	*custos:ff
!	!	!	!	!	!LO:LB:g=original
2D/	5:6	2D/	4f\	8.dd\L	8.ff\L
.	.	.	.	16cc\Jk	16ee\Jk
.	.	.	4f\	8.b\L	8.dd\L
!	!	!	!	!LO:TX:t=P:problem:kreska pseudotaktowa	!
.	.	.	.	16a\Jk	16cc\Jk
=55-	=55-	=55-	=55-	=55-	=55-
1E	3:4#r	1E	4g#X\	2.ee\	4b/
.	.	.	2a\	.	4cc\
.	.	.	.	.	2b/
.	.	.	4g#X\	4dd\	.
!LO:TX:t=P:problem: # od góry i od dołu	!	!	!	!	!
!LO:MO:mod=0.A;	!	!LO:MO:mod=0.A;	!LO:MO:mod=0.a;	!LO:MO:mod=0.cc#;	!LO:MO:mod=0.a;
0.Al;;	#	0.Al;;	0.al;;	0.cc#Xl;;	0.al;;
==	==	==	==	==	==
*-	*-	*-	*-	*-	*-
!!!system-decoration: [(s1,s2,s3,s4)]s5
!!!RDF**kern: i = editorial accidental
!!!RDF**kern: l = terminal long
!!!ENC: Filip Voros
!!!END: 2022-11-08
!!!ENC: Jan Barakat
!!!END: 2022-11-25
!!!YEC: Copyright 2022 Narodowy Instytut Fryderyka Chopina (https://polishscores.org)
!!!YEM: License CC-BY-4.0 (https://creativecommons.org/licenses/by/4.0)
!!!filter-modern: sic -sq | autostem -r | tie -si | shed -e "s/^custos:/Xcustos:/I" | shed -e "s/^(\d+[\/\\]right)/$1yy/I; s/^(\d+[\/\\]left)/$1yy/I" | shed -e "s/-//B" | shed -e "s/TX(.*):t=P:/tx$1:t=P:/LG" | modori -m |
